svg/u1f4ec.svg

<svg viewBox="0 0 128 128" xmlns="http://www.w3.org/2000/svg">
  <defs/>
  <path d="M63.14,84.17 L81.45,84.17 L81.45,124 L63.14,124 L63.14,84.17 Z" fill="#C87D5E"/>
  <path d="M81.45,94.23 C79.81,91.57 77.64,89.3 74.9,87.82 C73.2,86.9 71.32,86.37 69.41,86.18 L66.22,86.18 C65.18,86.28 64.14,86.48 63.14,86.78 L63.14,106.91 C64.03,105.55 65.51,104.57 67.11,104.19 C69.9,103.54 72.86,104.61 75.12,106.36 C77.38,108.11 79.07,110.49 80.72,112.82 C80.97,113.17 81.21,113.51 81.46,113.86 L81.46,94.23 Z" fill="#874D36"/>
  <path d="M28.94,28.97 C40.8,28.97 50.45,36.99 50.45,46.86 L50.45,94.46 L7.42,94.46 L7.42,46.86 C7.42,36.99 17.07,28.97 28.94,28.97" fill="#4E342E"/>
  <path d="M54.97,94.19 L19.13,94.19 C17,94.19 15.2,92.62 14.91,90.51 L9.87,53.88 C9.63,52.13 10.99,50.57 12.76,50.57 L54.97,50.57 L54.97,94.19 Z" fill="#FFFFFF"/>
  <path d="M97.55,25.09 L28.94,25.09 C28.94,25.09 52.52,27.98 52.52,47.87 L52.64,98.35 L119.16,98.35 C121.83,98.35 123.99,96.19 123.99,93.52 L123.99,51.54 C124,36.93 112.16,25.09 97.55,25.09 Z" fill="#1976D2"/>
  <path d="M83.47,34.01 L75.33,34.29 L63.48,52.47 C63.48,52.47 63.48,42.84 63.48,37.72 C63.48,29.84 55.48,25.08 55.48,25.08 L86.64,25.08 L86.8,25.24 C90.07,28.35 87.98,33.85 83.47,34.01 Z" fill="#0D47A1"/>
  <path d="M82.35,54.06 A8.14 9.16 0 1 1 66.07,54.06 A8.14 9.16 0 1 1 82.35,54.06 Z" fill="#0D47A1"/>
  <path d="M66.89,10.11 L66.92,51.67 C66.92,53.07 68.05,54.2 69.45,54.2 L74.56,54.2 C75.96,54.2 77.09,53.07 77.09,51.67 L77.09,4 L72.99,4 C69.62,4 66.89,6.73 66.89,10.11 Z" fill="#C62828"/>
  <path d="M69.12,10.11 L69.15,51.67 L77.32,51.67 L77.32,19.49 L91.4,19.49 C94.65,19.49 95.03,18.08 95.03,11.94 C95.03,5.8 94.66,4 91.41,4 L75.22,4 C71.85,4 69.12,6.73 69.12,10.11 Z" fill="#F44336"/>
  <path d="M74.39,10.88 C74.32,12.87 73.02,30.89 72.79,34.27 C72.51,38.36 70.15,38.78 70.15,35.06 L70.15,10.7 C70.16,6.76 74.54,6.55 74.39,10.88 Z" fill="#FF7555"/>
  <path d="M73.4,42.44 L73.47,60.75 C73.47,60.75 71.52,60.75 69.33,60.75 C65.28,60.75 62,56.65 62,51.59 C62,46.53 65.28,42.43 69.33,42.43 C73.38,42.43 73.4,42.44 73.4,42.44 Z" fill="#82AEC0"/>
  <path d="M80.73,51.59 A7.33 9.16 0 1 1 66.07,51.59 A7.33 9.16 0 1 1 80.73,51.59 Z" fill="#E0E0E0"/>
  <path d="M69.02,51.86 C69.46,52.08 69.99,51.84 70.37,51.52 C71.53,50.55 71.97,48.95 73.04,47.89 C73.98,46.95 75.41,46.03 74.29,44.64 C73.48,43.64 72.11,43.81 71.04,44.27 C68.67,45.26 66.79,50.74 69.02,51.86 Z" fill="#FFFFFF"/>
  <path d="M28.94,29.23 C40.71,29.23 50.29,37.19 50.29,46.98 L50.29,94.2 L7.59,94.2 L7.59,46.97 C7.59,37.19 17.17,29.23 28.94,29.23 M28.94,25.09 L28.94,25.09 C13.81,25.09 4,35.28 4,47.86 L4,96.21 C4,97.38 4.95,98.34 6.13,98.34 L54.22,98.34 C55.39,98.34 56.35,97.39 56.35,96.21 L56.35,47.86 C56.33,35.28 44.07,25.09 28.94,25.09 L28.94,25.09 Z" fill="#4FC3F7"/>
  <path d="M17.68,91.5 C17.09,91.19 17.58,90.6 17.91,90.06 L31.28,66.77 L33.91,68.37 L19.03,90.75 C18.65,91.33 18.27,91.81 17.68,91.5 Z" fill="#6FBFF0"/>
  <path d="M17.447,91.943 Q16.759,91.581 16.936,90.843 Q17.007,90.546 17.361,89.994 Q17.441,89.868 17.48,89.805 L31.102,66.076 L34.615,68.213 L19.446,91.027 Q18.488,92.489 17.447,91.943 Z M17.913,91.058 Q18.15,91.181 18.614,90.473 L33.205,68.527 L31.458,67.464 L18.34,90.315 L18.337,90.321 Q18.293,90.392 18.203,90.533 Q17.957,90.916 17.913,91.058 Z" fill="#6FBFF0"/>
  <path d="M39.89,74.93 L12.15,53.63 C11.81,53.4 11.52,52.98 11.87,52.56 C12.15,52.22 12.41,52.4 12.9,52.69 L39.78,71.21 C40.46,71.63 41.34,71.45 41.81,70.81 L49.83,59.95 L49.81,64.82 L43.05,74.36 C42.31,75.37 40.92,75.62 39.89,74.93 Z" fill="#6FBFF0"/>
  <path d="M39.585,75.327 L11.857,54.035 Q11.438,53.748 11.284,53.345 Q11.058,52.753 11.486,52.24 Q12.023,51.587 13.087,52.219 Q13.132,52.246 13.155,52.26 L13.169,52.268 L40.053,70.791 Q40.848,71.275 41.407,70.514 L50.336,58.423 L50.309,64.98 L43.458,74.649 Q41.85,76.845 39.612,75.345 L39.598,75.336 Z M40.181,74.523 Q41.614,75.474 42.642,74.071 L49.311,64.66 L49.324,61.477 L42.213,71.106 Q41.104,72.616 39.517,71.635 L39.507,71.629 L12.63,53.111 Q12.608,53.098 12.576,53.079 Q12.342,52.94 12.243,52.895 Q12.203,52.949 12.218,52.988 Q12.262,53.102 12.43,53.216 L12.443,53.224 L40.181,74.523 Z" fill="#6FBFF0"/>
</svg>

<svg viewBox="0 0 128 128" xmlns="http://www.w3.org/2000/svg">
  <rect height="39.83" fill="#C87D5E" width="18.31" x="63.14" y="84.17"/>
  <path d="M81.45,94.23c-1.64-2.66-3.81-4.93-6.55-6.41c-1.7-0.92-3.58-1.45-5.49-1.64h-3.19 c-1.04,0.1-2.08,0.3-3.08,0.6v20.13c0.89-1.36,2.37-2.34,3.97-2.72c2.79-0.65,5.75,0.42,8.01,2.17c2.26,1.75,3.95,4.13,5.6,6.46 c0.25,0.35,0.49,0.69,0.74,1.04V94.23z" fill="#874D36"/>
  <path d="M28.94,28.97c11.86,0,21.51,8.02,21.51,17.89v47.6H7.42v-47.6C7.42,36.99,17.07,28.97,28.94,28.97" fill="#4E342E"/>
  <path d="M54.97,94.19H19.13c-2.13,0-3.93-1.57-4.22-3.68L9.87,53.88c-0.24-1.75,1.12-3.31,2.89-3.31h42.21 V94.19z" fill="#FFFFFF"/>
  <path d="M97.55,25.09H28.94c0,0,23.58,2.89,23.58,22.78l0.12,50.48h66.52c2.67,0,4.83-2.16,4.83-4.83V51.54 C124,36.93,112.16,25.09,97.55,25.09z" fill="#1976D2"/>
  <path d="M83.47,34.01l-8.14,0.28L63.48,52.47c0,0,0-9.63,0-14.75c0-7.88-8-12.64-8-12.64h31.16l0.16,0.16 C90.07,28.35,87.98,33.85,83.47,34.01z" fill="#0D47A1"/>
  <ellipse cx="74.21" cy="54.06" rx="8.14" ry="9.16" fill="#0D47A1"/>
  <path d="M66.89,10.11l0.03,41.56c0,1.4,1.13,2.53,2.53,2.53h5.11c1.4,0,2.53-1.13,2.53-2.53V4l-4.1,0 C69.62,4,66.89,6.73,66.89,10.11z" fill="#C62828"/>
  <path d="M69.12,10.11l0.03,41.56h8.17V19.49h14.08c3.25,0,3.63-1.41,3.63-7.55S94.66,4,91.41,4H75.22 C71.85,4,69.12,6.73,69.12,10.11z" fill="#F44336"/>
  <path d="M74.39,10.88c-0.07,1.99-1.37,20.01-1.6,23.39c-0.28,4.09-2.64,4.51-2.64,0.79V10.7 C70.16,6.76,74.54,6.55,74.39,10.88z" fill="#FF7555"/>
  <path d="M73.4,42.44l0.07,18.31c0,0-1.95,0-4.14,0c-4.05,0-7.33-4.1-7.33-9.16s3.28-9.16,7.33-9.16 S73.4,42.44,73.4,42.44z" fill="#82AEC0"/>
  <ellipse cx="73.4" cy="51.59" rx="7.33" ry="9.16" fill="#E0E0E0"/>
  <path d="M69.02,51.86c0.44,0.22,0.97-0.02,1.35-0.34c1.16-0.97,1.6-2.57,2.67-3.63 c0.94-0.94,2.37-1.86,1.25-3.25c-0.81-1-2.18-0.83-3.25-0.37C68.67,45.26,66.79,50.74,69.02,51.86z" fill="#FFFFFF"/>
  <path d="M28.94,29.23c11.77,0,21.35,7.96,21.35,17.75V94.2H7.59V46.97C7.59,37.19,17.17,29.23,28.94,29.23 M28.94,25.09L28.94,25.09C13.81,25.09,4,35.28,4,47.86v48.35c0,1.17,0.95,2.13,2.13,2.13h48.09c1.17,0,2.13-0.95,2.13-2.13V47.86 C56.33,35.28,44.07,25.09,28.94,25.09L28.94,25.09z" fill="#4FC3F7"/>
  <path d="M17.68,91.5c-0.59-0.31-0.1-0.9,0.23-1.44l13.37-23.29 l2.63,1.6L19.03,90.75C18.65,91.33,18.27,91.81,17.68,91.5z" fill="#6FBFF0" stroke="#6FBFF0" stroke-miterlimit="10"/>
  <path d="M39.89,74.93l-27.74-21.3c-0.34-0.23-0.63-0.65-0.28-1.07 c0.28-0.34,0.54-0.16,1.03,0.13l26.88,18.52c0.68,0.42,1.56,0.24,2.03-0.4l8.02-10.86l-0.02,4.87l-6.76,9.54 C42.31,75.37,40.92,75.62,39.89,74.93z" fill="#6FBFF0" stroke="#6FBFF0" stroke-miterlimit="10"/>
</svg>
